X: 21373
T: LASSES LOOK BEHIND YOU
O: Reel.--Scottish.
%R: reel
B: W. Hamilton "Universal Tune-Book" Vol. 2 Glasgow 1846 p.137 #3
S: http://s3-eu-west-1.amazonaws.com/itma.dl.printmaterial/book_pdfs/hamiltonvol2web.pdf
Z: 2016 John Chambers <jc:trillian.mit.edu>
M: C
L: 1/8
K: D
% - - - - - - - - - - - - - - - - - - - - - - - - -
B |\
ADFD EB,B,B | ADFD d2df |\
gfed eBBd | FD F/G/A d2d :: f |\
dg f/g/a beef | dg f/g/a fdec |
dBAF E>FGB | FD F/G/A d2df |\
dg f/g/a beef | dg f/g/a fdec |\
dBAF E>FGB | AF A/B/c d2d |]
% - - - - - - - - - - - - - - - - - - - - - - - - -

%%sep 1 1 500
%%sep 1 1 500

